X:1
T:THE ENTERTAINER
T:THE ENTERTAINER
T:For Trombones
T:SCOTT JOPLIN ARR. SAMMY WAGANER 
C:SCOTT JOPLIN ARR. SAMMY WAGANER
%%score [ 1 2 3 4 ]
L:1/8
Q:1/4=80
M:2/4
K:C
V:1 bass nm="Trombone 1" snm="Tbn. 1"
V:2 bass nm="Trombone 2" snm="Tbn. 2"
V:3 bass nm="Trombone 3" snm="Tbn. 3"
V:4 bass nm="Trombone 4" snm="Tbn. 4"
V:1
!mf! (D/E/C/A,/- A,/B,/G,) | z4 |!f! (D/E/C/A,/- A,/B,/A,/_A,/ | G,) z G!mf!D,/^D,/ |: %4
 E,/CE,/ CE,/C/- | C2- C/!f! (C/D/^D/ | E/C/D/E/-) E/(B,/D | C3)!mp! G, | C,.C E,.C | %9
 F,.C!<(! (E,_E,!<)! |!mf! D,).C D,.C | .B, G,,A,,!mf!D,/^D,/ | E,/CE,/ CE,/C/- | C2!mf! E,.C | %14
 G,,.G, G,,.G, | C,.C.C!f! C/D/ | E/C/D/E/- E/C/D/C/ | E/C/D/E/- E/C/D/C/ | E/C/D/E/- E/B,/D |1 %19
 C3!mf! D,/^D,/ :|2 .C2 z/!mf! (E/F/^F/ |: GA/G/-) G/(E/F/^F/ | GA/G/-) G/(E/C/G,/ | %23
 A,/B,/C/D/ E/D/C/D/ | G,) z2!mp! G, | C,.G, G,,.G, | C,.G, (E,_E, |!p! .D,).B, D,.C | %28
 B,2 z/!mf! (E/F/^F/ | GA/G/-) G/(E/F/^F/ | GA/G/-) G/(E/C/G,/ | A,/B,/C/D/ E/D/C/D/ | %32
 C2-) C/ (G,/^F,/G,/ | CA,/C/-) C/A,/C/A,/ | G,/C/E/G/- G/E/C/G,/ |1 A,C E/DC/- | %36
 C2- C/ (E/F/^F/) :|2!<(! A,C E/DC/-!<)! | C2 !tenuto!!fermata!C!mf!D,/^D,/ || E,/CE,/ CE,/C/- | %40
 C2- C/!f! (C/D/^D/ | E/C/D/E/-) E/(B,/D | C3)!mp! G, | C,.C E,.C | F,.C!<(! (E,_E,!<)! | %45
!mf! D,).C D,.C | .B, G,,A,,!mf!D,/^D,/ | E,/CE,/ CE,/C/- | C2!mf! E,.C | G,,.G, G,,.G, | %50
 C,.C.C!f! C/D/ |!<(! E/C/D/E/- E/C/D/C/ | E/C/D/E/- E/C/D/C/ | E/C/D/E/- E/B,/D | %54
 .C2!<)! !tenuto!C2 |] %55
V:2
!mf! (D/E/C/A,/- A,/B,/G,) | z4 |!f! (D/E/C/A,/- A,/B,/A,/_A,/ | G,) z B,!mf!D,/^D,/ |: %4
 E,/CE,/ CE,/C/- | C2- C/!f! (E,/F,/^F,/ | G,/E,/F,/G,/-) G,/(D,/F, | E,3)!mp! F, | C,.G, E,.G, | %9
 F,.A,!<(! (E,_E,!<)! |!mf! D,).^F, D,.F, | .G, G,,A,,!mf!D,/^D,/ | E,/CE,/ CE,/C/- | %13
 C2!mf! E,.G, | G,,.E, G,,.F, | C,.G,.G,!f! E,/F,/ | G,/E,/F,/G,/- G,/E,/F,/E,/ | %17
 G,/E,/F,/G,/- G,/E,/F,/E,/ | G,/E,/F,/G,/- G,/D,/F, |1 E,3!mf! D,/^D,/ :|2 .E,2 z2 |: %21
!mf! EF/E/- E z | EF/E/- E z | z4 | z/ (E/F/G/ A/G/) z |!mp! C,.E, G,,.E, | C,.E, (E,_E, | %27
!p! .D,).G, D,.^F, | .G,!mf!(!courtesy!=F, E,D,) | EF/E/- E z | EF/E/- E z | z4 | z4 |!p! CC CC | %34
!mp! CC CC |1 CC B,B, |!mf! .C.G, !tenuto!C2 :|2!mf!!<(! CC B,B,!<)! | %38
 .C.G, !tenuto!!fermata!G,!mf!D,/^D,/ || E,/CE,/ CE,/C/- | C2- C/!f! (E,/F,/^F,/ | %41
 G,/E,/F,/G,/-) G,/(D,/F, | E,3)!mp! F, | C,.G, E,.G, | F,.A,!<(! (E,_E,!<)! |!mf! D,).^F, D,.F, | %46
 .G, G,,A,,!mf!D,/^D,/ | E,/CE,/ CE,/C/- | C2!mf! E,.G, | G,,.E, G,,.F, | C,.G,.G,!f! E,/F,/ | %51
!<(! G,/E,/F,/G,/- G,/E,/F,/E,/ | G,/E,/F,/G,/- G,/E,/F,/E,/ | G,/E,/F,/G,/- G,/D,/F, | %54
 .E,2!<)! !tenuto!E,2 |] %55
V:3
 z4 |!mf! (D,/E,/C,/A,,/- A,,/B,,/G,,) |!f! (D,/E,/C,/A,,/- A,,/B,,/A,,/_A,,/ | G,,) z D, z |: %4
!mp! C,.C E,.C | F,.C E,.C | G,,.G, G,,.G, | C,.C.C!mf!D,/^D,/ | E,/CE,/ CE,/C/- | C3!f! (A,/G,/ | %10
 ^F,/A,/C/E/- E/D/C/A,/ | D3)!mp! B,, | C,.C E,.C | F,.C z/!f! (C/D/^D/ | E/C/D/E/-) E/(B,/D | %15
 C3) z |!mf! C,.C _B,,.C | A,.C _A,.C | G,.C G,.B, |1 .G,(G,, A,,B,,) :|2 .G,.G,, !tenuto!C,2 |: %21
!mp! C,.G, G,,.G, | C,.G, G,,.G, | F,.C F,.C | C,.G, z!mf! E/F/ | GA/G/- G/(E/F/^F/ | GA/G/- G) z | %27
!p! D4 | .G,!mf!(F, E,D, |!mp! C,).G, G,,.G, | C,.G, G,,.G, | F,.C F,.C | C,.G, C,.G, | %33
!p! A,A, A,A, |!mp! E,E, G,G, |1 ^F,F, =F,/F,E,/- |!mf! E,.E, !tenuto!C,2 :|2 %37
!mf!!<(! ^F,F, =F,/F,E,/-!<)! | E,.E, !tenuto!!fermata!E, z ||!mp! C,.C E,.C | F,.C E,.C | %41
 G,,.G, G,,.G, | C,.C.C!mf!D,/^D,/ | E,/CE,/ CE,/C/- | C3!f! (A,/G,/ | ^F,/A,/C/E/- E/D/C/A,/ | %46
 D3)!mp! B,, | C,.C E,.C | F,.C z/!f! (C/D/^D/ | E/C/D/E/-) E/(B,/D | C3) z |!mf!!<(! C,.C _B,,.C | %52
 A,.C _A,.C | G,.C G,.B, | .G,.G,!<)! !tenuto!G,2 |] %55
V:4
 z4 |!mf! (D,/E,/C,/A,,/- A,,/B,,/G,,) |!f! (D,/E,/C,/A,,/- A,,/B,,/A,,/_A,,/ | G,,) z G,,, z |: %4
!mp! C,.G, E,.G, | F,.A, E,.G, | G,,.E, G,,.F, | C,.G,.G,!mf!D,/^D,/ | E,/CE,/ CE,/C/- | %9
 C3!f! (A,/G,/ | ^F,>F,- F,2 | F,3)!mp! B,, | C,.G, E,.G, | F,.A, z/!f! (E,/F,/^F,/ | %14
 G,/E,/F,/G,/-) G,/(D,/F, | E,3) z |!mf! C,.E, _B,,.E, | A,,.F, _A,,.F, | G,,.E, G,,.F, |1 %19
 .C,(G,, A,,B,,) :|2 .C,.G,, !tenuto!C,,2 |:!mp! C,.E, G,,.E, | C,.E, G,,.E, | F,.A, F,._A, | %24
 C,.E, G,, z |!mf! E,F,/E,/- E, z | E,F,/E,/- E,/!f!G,,/A,,/^A,,/ | %27
 B,,/B,,B,,/- B,,/(A,,/^F,,/D,,/ | G,,2-) G,,/ z/ z |!mp! C,.E, G,,.E, | C,.E, G,,.E, | %31
 F,.A, F,._A, | C,.E, C,.E, |!p! F,,F,, ^F,,F,, |!mp! G,,G,, E,,E,, |1 D,,D,, G,,G,, | %36
!mf! .C,.G,, !tenuto!C,,2 :|2!mf!!<(! D,,D,, G,,G,,!<)! | .C,.G,, !tenuto!!fermata!C,, z || %39
!mp! C,.G, E,.G, | F,.A, E,.G, | G,,.E, G,,.F, | C,.G,.G,!mf!D,/^D,/ | E,/CE,/ CE,/C/- | %44
 C3!f! (A,/G,/ | ^F,>F,- F,2 | F,3)!mp! B,, | C,.G, E,.G, | F,.A, z/!f! (E,/F,/^F,/ | %49
 G,/E,/F,/G,/-) G,/(D,/F, | E,3) z |!mf!!<(! C,.E, _B,,.E, | A,,.F, _A,,.F, | G,,.E, G,,.F, | %54
 .C,.G,,!<)! !tenuto!C,,2 |] %55

